svg/business/christmas_ball_line.svg

<?xml version="1.0" encoding="UTF-8"?>
<svg width="24px" height="24px" viewBox="0 0 24 24" version="1.1" xmlns="http://www.w3.org/2000/svg" xmlns:xlink="http://www.w3.org/1999/xlink">
    <title>christmas_ball_line</title>
    <g id="Icon" stroke="none" stroke-width="1" fill="none" fill-rule="evenodd">
        <g id="Business" transform="translate(-817.000000, -384.000000)">
            <g id="christmas_ball_line" transform="translate(817.000000, 384.000000)">
                <path d="M24,0 L24,24 L0,24 L0,0 L24,0 Z M12.5935,23.2578 L12.5819,23.2595 L12.5109,23.295 L12.4919,23.2987 L12.4767,23.295 L12.4057,23.2595 C12.3958,23.2564 12.387,23.259 12.3821,23.2649 L12.378,23.2758 L12.3609,23.7031 L12.3659,23.7235 L12.3769,23.7357 L12.4805,23.8097 L12.4953,23.8136 L12.5071,23.8097 L12.6107,23.7357 L12.6233,23.7197 L12.6267,23.7031 L12.6096,23.2758 C12.6076,23.2657 12.601,23.2593 12.5935,23.2578 Z M12.8584,23.1453 L12.8445,23.1473 L12.6598,23.2397 L12.6499,23.2499 L12.6472,23.2611 L12.6651,23.6906 L12.6699,23.7034 L12.6784,23.7105 L12.8793,23.8032 C12.8914,23.8069 12.9022,23.803 12.9078,23.7952 L12.9118,23.7812 L12.8777,23.1665 C12.8753,23.1546 12.8674,23.147 12.8584,23.1453 Z M12.143,23.1473 C12.1332,23.1424 12.1222,23.1453 12.1156,23.1526 L12.1099,23.1665 L12.0758,23.7812 C12.0751,23.7927 12.0828,23.8019 12.0926,23.8046 L12.1083,23.8032 L12.3092,23.7105 L12.3186,23.7024 L12.3225,23.6906 L12.3404,23.2611 L12.3372,23.2485 L12.3278,23.2397 L12.143,23.1473 Z" id="MingCute" fill-rule="nonzero"></path>
                <path d="M12,2 C12.3788,2 12.725,2.214 12.8944,2.55279 L13.698,4.15995 C17.8567,4.95397 21,8.60991 21,13 C21,17.9706 16.9706,22 12,22 C7.02944,22 3,17.9706 3,13 C3,8.60991 6.14325,4.95397 10.302,4.15994 L11.1056,2.55279 C11.275,2.214 11.6212,2 12,2 Z M5.01344,12.5626 C5.00452,12.7073 5,12.8531 5,13 C5,13.9216 5.17808,14.8015 5.50171,15.6073 C5.77597,15.6954 5.92576,15.7426 5.95107,15.7489 C7.60997,16.1605 9.4296,15.9964 11.1708,14.8527 L11.419,14.6826 C13.7686,13.0043 16.272,12.742 18.5311,13.3026 C18.7025,13.3451 18.8549,13.3883 18.987,13.4299 C18.9956,13.2877 19,13.1444 19,13 C19,12.0756 18.8208,11.193 18.4953,10.3851 L18.0494,10.2437 C16.3905,9.83211 14.5709,9.99613 12.8297,11.1399 L12.5815,11.31 C10.232,12.9882 7.72853,13.2505 5.46943,12.69 C5.29804,12.6474 5.14559,12.6042 5.01344,12.5626 Z M5.42823,10.5837 C5.74931,10.687 5.92359,10.742 5.95107,10.7488 C7.60997,11.1604 9.4296,10.9964 11.1708,9.85263 L11.419,9.68252 C13.2334,8.38655 15.1396,7.93498 16.9541,8.05463 C15.687,6.78531 13.9352,6 12,6 C8.98325,6 6.41222,7.90834 5.42823,10.5837 Z M18.574,15.4101 L18.0494,15.2437 C16.3905,14.8321 14.5709,14.9961 12.8297,16.1399 L12.5815,16.31 C10.7643,17.608 8.855,18.059 7.03791,17.9374 C8.30563,19.2114 10.0607,20 12,20 C15.0191,20 17.5918,18.0887 18.574,15.4101 Z" id="形状" fill="#09244B"></path>
            </g>
        </g>
    </g>
</svg>

<svg xmlns="http://www.w3.org/2000/svg" width="24" height="24"><g fill="none" fill-rule="evenodd"><path d="M24 0v24H0V0zM12.594 23.258l-.012.002-.071.035-.02.004-.014-.004-.071-.036c-.01-.003-.019 0-.024.006l-.004.01-.017.428.005.02.01.013.104.074.015.004.012-.004.104-.074.012-.016.004-.017-.017-.427c-.002-.01-.009-.017-.016-.018m.264-.113-.014.002-.184.093-.01.01-.003.011.018.43.005.012.008.008.201.092c.012.004.023 0 .029-.008l.004-.014-.034-.614c-.003-.012-.01-.02-.02-.022m-.715.002a.023.023 0 0 0-.027.006l-.006.014-.034.614c0 .012.007.02.017.024l.015-.002.201-.093.01-.008.003-.011.018-.43-.003-.012-.01-.01z"/><path fill="#09244B" d="M12 2a1 1 0 0 1 .894.553l.804 1.607A9 9 0 1 1 3 13c0-4.39 3.143-8.046 7.302-8.84l.804-1.607A1 1 0 0 1 12 2M5.013 12.563a6.98 6.98 0 0 0 .488 3.045c.275.087.425.135.45.14 1.659.412 3.479.248 5.22-.895l.248-.17c2.35-1.679 4.853-1.941 7.112-1.38.172.042.324.085.456.127a6.982 6.982 0 0 0-.492-3.045l-.446-.141c-1.658-.412-3.478-.248-5.22.896l-.248.17c-2.349 1.678-4.852 1.94-7.112 1.38a7.76 7.76 0 0 1-.456-.127m.415-1.98c.321.104.496.159.523.166 1.659.411 3.479.247 5.22-.896l.248-.17c1.814-1.296 3.72-1.748 5.535-1.628a7.003 7.003 0 0 0-11.526 2.53m13.146 4.827-.525-.166c-1.658-.412-3.478-.248-5.22.896l-.248.17c-1.817 1.298-3.726 1.749-5.543 1.627a7.003 7.003 0 0 0 11.536-2.527"/></g></svg>
